X: 20997
T: Julia Delaney's
R: reel
M: 4/4
K: Ddorian
|dcAG FDDE|F2cF dFcF|dcAG FDDc|Addc ~d3c|
dcAG FDDF|E~C3 G~C3|dcAG EDDc|Addc ~d3|
fede fagf|e~c3 Gceg|fede fage|fedc Ad2e|
fede fagf|e~c3 Gceg|^f~a3 e~3g|fedc Ad3|

